assets/icon/HOME-2.svg

<svg width="26" height="25" viewBox="0 0 26 25" fill="none" xmlns="http://www.w3.org/2000/svg">
<path d="M24.82 9.82003L14.99 1.68003C13.84 0.730029 12.18 0.730029 11.04 1.68003L1.20001 9.82003C0.810014 10.14 0.800014 10.74 1.19001 11.08L1.28001 11.16C1.58001 11.42 2.03001 11.42 2.34001 11.17L2.60001 10.95V12.06V20.97C2.60001 23.06 4.31001 24.76 6.39001 24.76H13.84C14.19 24.76 14.47 24.48 14.47 24.13V23.7C14.47 23.35 14.19 23.07 13.84 23.07H6.40001C5.24001 23.07 4.30001 22.12 4.30001 20.97V9.54003L12.68 2.60003C12.78 2.52003 12.89 2.48003 13.01 2.48003C13.13 2.48003 13.25 2.52003 13.34 2.60003L21.71 9.53003V21.6C21.71 22.41 21.05 23.07 20.24 23.07H17.96V15.15C17.96 13.26 16.43 11.73 14.54 11.73H11.64C9.75001 11.73 8.22001 13.26 8.22001 15.15V21.45C8.22001 21.79 8.49001 22.06 8.83001 22.06H9.31001C9.65001 22.06 9.92001 21.79 9.92001 21.45V15.15C9.92001 14.2 10.69 13.43 11.64 13.43H14.54C15.49 13.43 16.26 14.2 16.26 15.15V23.07V23.78C16.26 24.32 16.69 24.75 17.23 24.75H17.96H20.23C21.97 24.75 23.39 23.33 23.39 21.59V12.04V10.92L23.68 11.16C23.99 11.42 24.44 11.41 24.74 11.15L24.83 11.07C25.22 10.74 25.21 10.14 24.82 9.82003Z" fill="black"/>
</svg>

<?xml version="1.0" encoding="utf-8"?>
<!-- Generator: Adobe Illustrator 26.0.2, SVG Export Plug-In . SVG Version: 6.00 Build 0)  -->
<svg version="1.1" id="Layer_1" xmlns="http://www.w3.org/2000/svg" xmlns:xlink="http://www.w3.org/1999/xlink" x="0px" y="0px"
	 viewBox="0 0 26 26" style="enable-background:new 0 0 26 26;" xml:space="preserve">
<style type="text/css">
	.st0{display:none;}
	.st1{display:inline;}
</style>
<g id="Layer_2_00000150099008450393905850000004968015544471709861_" class="st0">
	<g class="st1">
		<g>
			<g>
				<path d="M20.18,4.24H19.2c-0.31-1.37-1.54-2.41-3.01-2.41H2.74v16.84c0,1.6,1.22,2.9,2.77,3.06c0.3,1.39,1.54,2.44,3.02,2.44
					h11.65c1.7,0,3.09-1.39,3.09-3.09V7.33C23.27,5.63,21.88,4.24,20.18,4.24z M4.44,18.67V3.53H16.2c0.52,0,0.96,0.29,1.2,0.71
					H5.44V20C4.86,19.83,4.44,19.3,4.44,18.67z M21.57,21.08c0,0.77-0.62,1.39-1.39,1.39H8.53c-0.77,0-1.39-0.62-1.39-1.39V5.94
					h13.04c0.77,0,1.39,0.62,1.39,1.39V21.08z"/>
				<path d="M19.45,8.74h-7.23c-0.45,0-0.82,0.38-0.82,0.85s0.37,0.85,0.82,0.85h7.23c0.45,0,0.82-0.38,0.82-0.85
					S19.9,8.74,19.45,8.74z"/>
				<path d="M9.93,8.74H9.79c-0.45,0-0.82,0.38-0.82,0.85s0.37,0.85,0.82,0.85h0.14c0.45,0,0.82-0.38,0.82-0.85
					S10.38,8.74,9.93,8.74z"/>
				<path d="M19.45,13.53h-7.23c-0.45,0-0.82,0.38-0.82,0.85s0.37,0.85,0.82,0.85h7.23c0.45,0,0.82-0.38,0.82-0.85
					S19.9,13.53,19.45,13.53z"/>
				<path d="M9.93,13.53H9.79c-0.45,0-0.82,0.38-0.82,0.85s0.37,0.85,0.82,0.85h0.14c0.45,0,0.82-0.38,0.82-0.85
					S10.38,13.53,9.93,13.53z"/>
				<path d="M19.45,18.32h-7.23c-0.45,0-0.82,0.38-0.82,0.85s0.37,0.85,0.82,0.85h7.23c0.45,0,0.82-0.38,0.82-0.85
					S19.9,18.32,19.45,18.32z"/>
				<path d="M9.93,18.32H9.79c-0.45,0-0.82,0.38-0.82,0.85s0.37,0.85,0.82,0.85h0.14c0.45,0,0.82-0.38,0.82-0.85
					S10.38,18.32,9.93,18.32z"/>
			</g>
		</g>
	</g>
</g>
<g id="Layer_3" class="st0">
	<g class="st1">
		<g>
			<g>
				<path d="M20.62,4.24h-0.97h-1.81h-1.01c0.4,0.52,0.75,1.09,1.02,1.7h2.77c0.77,0,1.39,0.62,1.39,1.39v13.75
					c0,0.77-0.62,1.39-1.39,1.39H8.97c-0.77,0-1.39-0.62-1.39-1.39v-3.24c-0.59-0.17-1.16-0.4-1.7-0.68V20v1.08
					c0,0.22,0.03,0.44,0.07,0.65c0.3,1.39,1.54,2.44,3.02,2.44h11.65c1.7,0,3.09-1.39,3.09-3.09V7.33
					C23.71,5.63,22.33,4.24,20.62,4.24z"/>
				<path d="M15.12,15.16c0.56-0.51,1.05-1.11,1.44-1.76c0.09-0.15,0.17-0.3,0.25-0.46c0.52-1.03,0.82-2.2,0.82-3.44
					c0-2.11-0.86-4.03-2.25-5.42c-0.17-0.17-0.36-0.34-0.54-0.5c-0.19-0.16-0.39-0.3-0.59-0.44c-1.22-0.83-2.7-1.31-4.29-1.31
					S6.9,2.31,5.67,3.14c-0.2,0.14-0.4,0.29-0.59,0.44C4.71,3.9,4.36,4.25,4.05,4.63C3.58,5.2,3.19,5.83,2.9,6.52
					C2.51,7.44,2.3,8.45,2.3,9.5l0,0l0,0c0,0.79,0.12,1.56,0.35,2.28c0.07,0.24,0.16,0.48,0.26,0.7c1.17,2.75,3.89,4.69,7.07,4.69
					C11.95,17.17,13.76,16.41,15.12,15.16z M3.75,9.5c0-3,2.13-5.51,4.96-6.09c0.4-0.08,0.82-0.13,1.25-0.13s0.85,0.04,1.25,0.13
					c0.54,0.11,1.05,0.3,1.53,0.54c0.37,0.19,0.72,0.41,1.05,0.66c0.05,0.04,0.11,0.08,0.16,0.13c0.22,0.18,0.42,0.38,0.61,0.6
					c0.12,0.13,0.24,0.27,0.34,0.41c0.8,1.05,1.28,2.35,1.28,3.75c0,1.34-0.43,2.58-1.15,3.59c-0.19,0.27-0.4,0.52-0.63,0.76
					c-0.01,0.01-0.02,0.03-0.04,0.04c-1.12,1.12-2.68,1.82-4.39,1.82C6.54,15.72,3.75,12.93,3.75,9.5z"/>
				<path d="M7.49,13.57l2.08-2.52c0.13,0.03,0.26,0.06,0.4,0.06c0.88,0,1.59-0.72,1.59-1.59c0-0.68-0.43-1.25-1.02-1.48V6
					c0-0.3-0.25-0.55-0.55-0.55S9.44,5.7,9.44,6v2C8.82,8.22,8.37,8.8,8.37,9.5c0,0.3,0.09,0.58,0.24,0.82L6.57,12.8
					c-0.21,0.26-0.17,0.63,0.08,0.84C6.9,13.86,7.28,13.82,7.49,13.57z M9.96,8.91c0.33,0,0.59,0.27,0.59,0.59s-0.27,0.59-0.59,0.59
					s-0.6-0.27-0.6-0.59S9.63,8.91,9.96,8.91z"/>
				<path d="M9.25,19.65c0,0.69,0.56,1.24,1.24,1.24h2.38c0.69,0,1.24-0.56,1.24-1.24v-2.54c-1.23,0.67-2.64,1.06-4.14,1.06
					c-0.24,0-0.48-0.02-0.72-0.04C9.25,18.13,9.25,19.65,9.25,19.65z"/>
				<path d="M15.54,16.13v3.52c0,0.69,0.56,1.24,1.24,1.24h2.38c0.69,0,1.24-0.56,1.24-1.24V15.9c0-0.69-0.56-1.24-1.24-1.24h-2.24
					C16.52,15.2,16.06,15.69,15.54,16.13z"/>
				<path d="M19.16,13.5c0.69,0,1.24-0.56,1.24-1.24V8.5c0-0.69-0.56-1.24-1.24-1.24h-0.84c0.19,0.72,0.31,1.47,0.31,2.24
					c0,1.44-0.36,2.8-0.98,4H19.16z"/>
			</g>
		</g>
	</g>
</g>
<g id="Layer_4" class="st0">
	<g class="st1">
		<g>
			<g>
				<g>
					<path d="M14.35,23.31c-0.12,0-0.25-0.02-0.37-0.06c-0.51-0.16-0.86-0.6-0.89-1.13l-0.2-3.44H5.27c-1.89,0-3.43-1.54-3.43-3.43
						V6.11c0-1.89,1.54-3.43,3.43-3.43h15.47c1.89,0,3.43,1.54,3.43,3.43v9.14c0,1.89-1.54,3.43-3.43,3.43h-2.25l-3.14,4.13
						C15.11,23.14,14.74,23.31,14.35,23.31z M5.27,4.39c-0.95,0-1.73,0.78-1.73,1.73v9.14c0,0.95,0.77,1.73,1.73,1.73h9.24
						l0.22,3.85l2.93-3.85h3.09c0.95,0,1.73-0.78,1.73-1.73V6.11c0-0.95-0.77-1.73-1.73-1.73L5.27,4.39L5.27,4.39z"/>
				</g>
				<g>
					<path d="M6.26,8.67h13.48c0.51,0,0.92-0.41,0.92-0.92s-0.41-0.92-0.92-0.92H6.26c-0.51,0-0.92,0.41-0.92,0.92
						S5.75,8.67,6.26,8.67z"/>
					<path d="M6.26,11.59h6.29c0.51,0,0.92-0.41,0.92-0.92s-0.41-0.92-0.92-0.92H6.26c-0.51,0-0.92,0.41-0.92,0.92
						S5.75,11.59,6.26,11.59z"/>
					<path d="M19.75,9.75h-4.19c-0.51,0-0.92,0.41-0.92,0.92s0.41,0.92,0.92,0.92h4.19c0.51,0,0.92-0.41,0.92-0.92
						C20.66,10.16,20.25,9.75,19.75,9.75z"/>
					<path d="M14.56,12.67h-8.3c-0.51,0-0.92,0.41-0.92,0.92s0.41,0.92,0.92,0.92h8.3c0.51,0,0.92-0.41,0.92-0.92
						C15.48,13.08,15.07,12.67,14.56,12.67z"/>
				</g>
			</g>
		</g>
	</g>
</g>
<g id="Layer_5" class="st0">
	<g class="st1">
		<g>
			<path d="M21.88,1.65H4.13c-1.37,0-2.48,1.11-2.48,2.48v15.35c0,0,0.65-0.67,1.34-1.29c0.23-0.21,0.36-0.51,0.36-0.82V4.13
				c0-0.43,0.35-0.78,0.78-0.78h17.74c0.43,0,0.78,0.35,0.78,0.78V19c-1.06-1.25-2.38-2.29-3.87-3.05c0.88-1.2,1.4-2.67,1.4-4.26
				c0-3.98-3.22-7.21-7.18-7.21s-7.18,3.24-7.18,7.21c0,1.6,0.52,3.07,1.4,4.26c-1.49,0.76-2.81,1.8-3.87,3.05
				c-0.67,0.79-1.23,1.68-1.68,2.62c0.05,0.82,0.43,1.53,1.02,2.03c0.51,0.43,1.15,0.7,1.87,0.7h16.89c0.72,0,1.36-0.27,1.87-0.7
				c0.59-0.5,0.97-1.22,1.02-2.03c0-0.06,0.02-0.11,0.02-0.17V4.13C24.35,2.76,23.24,1.65,21.88,1.65z M7.53,11.68
				c0-3.04,2.46-5.51,5.48-5.51s5.48,2.47,5.48,5.51c0,1.37-0.5,2.62-1.32,3.58c-0.45,0.53-1,0.97-1.62,1.3
				c-0.76,0.4-1.62,0.63-2.54,0.63s-1.78-0.23-2.54-0.63c-0.62-0.33-1.17-0.77-1.62-1.3C8.03,14.3,7.53,13.05,7.53,11.68z
				 M21.45,22.65H4.56c-0.51,0-0.94-0.33-1.12-0.78c1.09-2.02,2.86-3.65,5.01-4.62c1.24,1.03,2.83,1.65,4.56,1.65
				s3.32-0.62,4.56-1.65c2.15,0.97,3.91,2.6,5.01,4.62C22.39,22.33,21.96,22.65,21.45,22.65z"/>
		</g>
	</g>
</g>
<g id="Layer_6" class="st0">
	<g class="st1">
		<g>
			<path d="M21.43,5.81H4.58c-1.51,0-2.73,1.22-2.73,2.73v8.91c0,1.5,1.23,2.73,2.73,2.73h16.85c1.51,0,2.73-1.22,2.73-2.73V8.54
				C24.16,7.04,22.94,5.81,21.43,5.81z M4.58,7.51h16.85c0.57,0,1.03,0.46,1.03,1.03v0.33l-8.33,4.63c-0.7,0.39-1.56,0.39-2.26,0
				L3.55,8.88V8.54C3.55,7.98,4.01,7.51,4.58,7.51z M21.43,18.49H4.58c-0.57,0-1.03-0.46-1.03-1.03v-6.64l8.33,4.63
				c0.7,0.39,1.56,0.39,2.26,0l8.33-4.63v6.63C22.46,18.03,22,18.49,21.43,18.49z"/>
		</g>
	</g>
</g>
<g id="Layer_7" class="st0">
	<g class="st1">
		<g>
			<g>
				<path d="M22.45,12.71h-3.12c-0.07-1.91-1.64-3.45-3.57-3.45h-4.72V5.8c0-1.08,0.88-1.96,1.96-1.96h0.33
					c1.08,0,1.96,0.88,1.96,1.96v1.72c0,0.47,0.38,0.85,0.85,0.85c0.47,0,0.85-0.38,0.85-0.85V5.8c0-2.02-1.64-3.66-3.66-3.66H13
					c-2.02,0-3.66,1.64-3.66,3.66v3.52c-1.66,0.27-2.93,1.67-3,3.39H3.88c-1.04,0-1.89,0.85-1.89,1.88v3.7
					c0,1.04,0.85,1.88,1.89,1.88h2.46v0.1c0,1.97,1.61,3.58,3.58,3.58h5.85c1.97,0,3.58-1.6,3.58-3.58v-0.1h3.11
					c1.04,0,1.88-0.85,1.88-1.88v-3.7C24.34,13.56,23.49,12.71,22.45,12.71z M22.64,18.3c0,0.1-0.08,0.19-0.18,0.19H3.88
					c-0.1,0-0.19-0.08-0.19-0.19v-3.7c0-0.1,0.08-0.19,0.19-0.19h18.58c0.1,0,0.18,0.08,0.18,0.19V18.3z"/>
				<path d="M6.59,15.07c-0.67,0-1.21,0.54-1.21,1.21c0,0.67,0.54,1.21,1.21,1.21s1.21-0.54,1.21-1.21S7.25,15.07,6.59,15.07z"/>
				<path d="M11.06,15.07c-0.67,0-1.21,0.54-1.21,1.21c0,0.67,0.54,1.21,1.21,1.21s1.21-0.54,1.21-1.21S11.72,15.07,11.06,15.07z"/>
				<path d="M15.53,15.07c-0.67,0-1.21,0.54-1.21,1.21c0,0.67,0.54,1.21,1.21,1.21c0.67,0,1.21-0.54,1.21-1.21
					S16.2,15.07,15.53,15.07z"/>
				<path d="M20,15.07c-0.67,0-1.21,0.54-1.21,1.21c0,0.67,0.54,1.21,1.21,1.21c0.67,0,1.21-0.54,1.21-1.21S20.67,15.07,20,15.07z"
					/>
			</g>
		</g>
	</g>
</g>
<g id="Layer_8" class="st0">
	<g class="st1">
		<g>
			<g>
				<path d="M16.96,17.66c-0.33-0.22-0.8-0.23-1.25-0.06c-0.55,0.21-1.32,0.86-2.39,0.97c-1.14-0.03-2.57-0.5-4.07-2.07
					c-0.06-0.06-0.11-0.11-0.17-0.17s-0.1-0.12-0.15-0.18c-1.43-1.62-1.78-3.09-1.71-4.23c0.21-1.06,0.91-1.77,1.17-2.3
					c0.21-0.44,0.25-0.9,0.05-1.25L5.75,5.19c-0.38-0.41-0.6-0.44-0.91-0.15c0,0-1.31,1.35-1.59,3.03c-0.19,1.1-0.13,2.17,0.09,3.16
					c0.11,0.5,0.26,0.98,0.44,1.44C4.3,14,5.15,15.14,5.97,16.24c0.77,1.03,1.62,2,2.56,2.89c1.06,1.01,2.14,1.95,3.45,2.65
					c0.47,0.25,0.97,0.47,1.49,0.65c1.02,0.35,2.15,0.52,3.34,0.43c1.7-0.14,3.16-1.32,3.16-1.32c0.31-0.29,0.31-0.51-0.07-0.92
					L16.96,17.66z"/>
				<path d="M12.07,8.07c1.27,0.2,2.58,0.79,3.69,1.78s1.87,2.21,2.22,3.45c0.11,0.38,0.5,0.6,0.89,0.54l0.3-0.05
					c0.48-0.08,0.77-0.56,0.64-1.02c-0.45-1.58-1.38-3.12-2.78-4.35C15.64,7.18,14,6.44,12.38,6.19c-0.48-0.07-0.91,0.27-0.94,0.76
					l-0.01,0.31C11.41,7.65,11.68,8.01,12.07,8.07z"/>
				<path d="M22.84,12.28c-0.54-2.23-1.82-4.41-3.78-6.15s-4.29-2.74-6.57-3c-0.47-0.05-0.89,0.29-0.91,0.76L11.57,4.2
					c-0.02,0.41,0.27,0.78,0.68,0.83c1.91,0.22,3.87,1.07,5.54,2.55c1.67,1.48,2.76,3.33,3.21,5.19c0.1,0.4,0.5,0.64,0.9,0.57
					l0.31-0.05C22.67,13.19,22.95,12.73,22.84,12.28z"/>
				<path d="M11.95,11.15c0.64,0.12,1.28,0.43,1.85,0.93c0.56,0.5,0.95,1.1,1.15,1.72c0.12,0.38,0.5,0.62,0.89,0.55l0.32-0.05
					c0.47-0.08,0.78-0.56,0.64-1.01c-0.3-0.97-0.88-1.89-1.73-2.65c-0.85-0.75-1.84-1.21-2.84-1.39c-0.47-0.08-0.91,0.28-0.93,0.76
					l-0.01,0.33C11.27,10.74,11.55,11.08,11.95,11.15z"/>
			</g>
		</g>
	</g>
</g>
<g id="Layer_9" class="st0">
	<g class="st1">
		<g>
			<g>
				<path d="M5.41,19.04c-1.09,0-1.99,0.89-1.99,1.99s0.89,1.99,1.99,1.99s1.99-0.89,1.99-1.99S6.51,19.04,5.41,19.04z M5.41,21.57
					c-0.3,0-0.55-0.25-0.55-0.55s0.25-0.55,0.55-0.55s0.55,0.25,0.55,0.55S5.71,21.57,5.41,21.57z"/>
				<path d="M19.56,19.04c-1.09,0-1.99,0.89-1.99,1.99s0.89,1.99,1.99,1.99c1.09,0,1.99-0.89,1.99-1.99S20.65,19.04,19.56,19.04z
					 M19.56,21.57c-0.3,0-0.55-0.25-0.55-0.55s0.25-0.55,0.55-0.55s0.55,0.25,0.55,0.55C20.11,21.32,19.86,21.57,19.56,21.57z"/>
				<path d="M9.05,19.7l-2.11,0.4c-0.36,0.11-0.56,0.5-0.44,0.86c0.09,0.29,0.36,0.48,0.65,0.48c0.07,0,0.14-0.01,0.21-0.03
					l2.11-0.39c0.44-0.14,0.93-0.21,1.41-0.21h5.77c0.04-0.5,0.19-0.97,0.45-1.37h-6.22C10.25,19.43,9.63,19.52,9.05,19.7z"/>
				<path d="M23.2,2.99h-2.11c-0.3,0-0.56,0.19-0.65,0.48l-1.07,3.36L2.74,8.39C2.53,8.41,2.34,8.53,2.23,8.7
					C2.12,8.88,2.09,9.1,2.17,9.3l1.11,3.04c0.01,0.06,0.03,0.12,0.07,0.18l0.83,2.27c0.1,0.27,0.35,0.45,0.64,0.45h1.21l0.62,1.31
					c0.11,0.22,0.32,0.37,0.56,0.39l11.62,0.9c0.29,0.03,0.52,0.12,0.71,0.23c0.01,0,0.01,0,0.02,0c0.67,0,1.29,0.24,1.79,0.62
					c0-0.02,0.01-0.04,0.01-0.07c0-1.09-1-1.99-2.4-2.14L7.71,15.62l-0.17-0.37h10.08c0.3,0,0.56-0.19,0.65-0.48l3.32-10.42h1.61
					c0.38,0,0.68-0.31,0.68-0.68S23.58,2.99,23.2,2.99z M17.78,11.82c-0.75,0.01-1.53,0.02-2.34,0.03v-1.18
					c0.85-0.01,1.74-0.02,2.72-0.03L17.78,11.82z M14.48,11.86c-0.91,0.01-1.83,0.02-2.73,0.02v-1.17c0.82-0.01,1.73-0.02,2.73-0.03
					V11.86z M4.12,10.67c0.54,0.03,1.44,0.05,3,0.06v1.17c-1.09,0-1.98-0.01-2.56-0.02L4.12,10.67z M8.07,9.76v-0.5L10.8,9v0.75
					C9.84,9.76,8.92,9.76,8.07,9.76z M10.8,10.71v1.17c-0.96,0.01-1.88,0.01-2.73,0.01v-1.17C8.85,10.72,9.74,10.72,10.8,10.71z
					 M8.07,12.86c0.77,0,1.68,0,2.73-0.01v1.04H8.07V12.86z M11.75,12.84c0.82-0.01,1.73-0.02,2.73-0.03v1.08h-2.73V12.84z
					 M11.75,9.75V8.92l2.73-0.26v1.06C13.57,9.73,12.65,9.74,11.75,9.75z M7.12,9.35v0.41c-1.76,0-3.03-0.02-3.35-0.06L3.75,9.67
					L7.12,9.35z M4.91,12.82c0.52,0.02,1.23,0.03,2.21,0.03v1.03H5.29L4.91,12.82z M15.43,13.89V12.8c0.64-0.01,1.32-0.02,2.04-0.02
					l-0.35,1.11C17.12,13.89,15.43,13.89,15.43,13.89z M18.43,9.78c-0.08-0.05-0.17-0.09-0.26-0.09c-0.85,0.01-1.78,0.02-2.73,0.03
					V8.57l3.48-0.33L18.43,9.78z"/>
			</g>
		</g>
	</g>
</g>
<g id="Layer_10" class="st0">
	<g class="st1">
		<g>
			<g>
				<path d="M21.43,4.59H4.58c-1.51,0-2.73,1.22-2.73,2.73v11.36c0,1.5,1.23,2.73,2.73,2.73h16.85c1.51,0,2.73-1.22,2.73-2.73V7.32
					C24.16,5.81,22.94,4.59,21.43,4.59z M22.46,9.6v2.32v6.77c0,0.57-0.46,1.03-1.03,1.03H4.58c-0.57,0-1.03-0.46-1.03-1.03v-6.15
					h6.95V9.02H3.55v-1.7c0-0.57,0.46-1.03,1.03-1.03h16.85c0.57,0,1.03,0.46,1.03,1.03C22.46,7.32,22.46,9.6,22.46,9.6z"/>
				<path d="M17.1,11.99c-1.39-0.45-1.96-0.75-1.96-1.21c0-0.39,0.34-0.79,1.4-0.79c1.17,0,1.92,0.32,2.35,0.48l0.47-1.59
					C18.82,8.65,18.09,8.46,17,8.42V7.18h-1.6v1.34c-1.74,0.3-2.75,1.27-2.75,2.5c0,1.36,1.19,2.07,2.93,2.57
					c1.21,0.35,1.73,0.69,1.73,1.22c0,0.56-0.64,0.87-1.56,0.87c-1.06,0-2.02-0.3-2.71-0.62l-0.49,1.65
					c0.62,0.31,1.68,0.56,2.77,0.61v1.34h1.6v-1.43c1.87-0.28,2.9-1.35,2.9-2.6C19.82,13.35,19.03,12.58,17.1,11.99z"/>
			</g>
		</g>
	</g>
</g>
<path d="M24.82,9.82l-9.83-8.14c-1.15-0.95-2.81-0.95-3.95,0L1.2,9.82c-0.39,0.32-0.4,0.92-0.01,1.26l0.09,0.08
	c0.3,0.26,0.75,0.26,1.06,0.01l0.26-0.22v1.11v8.91c0,2.09,1.71,3.79,3.79,3.79h7.45c0.35,0,0.63-0.28,0.63-0.63V23.7
	c0-0.35-0.28-0.63-0.63-0.63H6.4c-1.16,0-2.1-0.95-2.1-2.1V9.54l8.38-6.94c0.1-0.08,0.21-0.12,0.33-0.12s0.24,0.04,0.33,0.12
	l8.37,6.93V21.6c0,0.81-0.66,1.47-1.47,1.47h-2.28v-7.92c0-1.89-1.53-3.42-3.42-3.42h-2.9c-1.89,0-3.42,1.53-3.42,3.42v6.3
	c0,0.34,0.27,0.61,0.61,0.61h0.48c0.34,0,0.61-0.27,0.61-0.61v-6.3c0-0.95,0.77-1.72,1.72-1.72h2.9c0.95,0,1.72,0.77,1.72,1.72v7.92
	v0.71c0,0.54,0.43,0.97,0.97,0.97h0.73h2.27c1.74,0,3.16-1.42,3.16-3.16v-9.55v-1.12l0.29,0.24c0.31,0.26,0.76,0.25,1.06-0.01
	l0.09-0.08C25.22,10.74,25.21,10.14,24.82,9.82z"/>
</svg>
